X: 20892
Q: "Plaintive"
M: 6/8
L: 1/8
K: F
c |\
f2f gfg | a3- a2c' | c'af {g}fef | g3- g2c |\
f2f {a}gfg | abc' abc' |
f2f {a}gfg | a3- a2c |\
fff {a}gfg | abc' abc' | c>dc cde | f3- fga |\
b3- bag | c'3- c'af | c>dc cde | f3 f2 |]


